X:1
T:Title
%%score { ( 1 4 ) | ( 2 3 ) }
L:1/8
M:6/8
K:Bb
V:1 treble nm="Grand Piano"
V:4 treble 
V:2 bass 
V:3 bass 
V:1
 z3 z2[Q:1/4=90] [DF] | [DF][EG][DF] [DB]2 [Fd] | [Ec]dc B2 [FB] | .c3 z3 | F-[Fc][Fd] c3 | %5
[M:1/8] F |[M:3/4] DE [B,DF] [DB]2 [DF] | [DB][Ec] [Fd] c2 c | cd e d2 [Fd] | %9
 .[=Ec]2 [B,EG] [A,F]3 |[M:1/8] [DF] |[M:3/4] [DF]2 [DF] [DF]2 [DF] | G2 G G2 G | %13
 [DF]2 [DF] [FB]2 [Fd] |[M:5/8] c-c- c3 |[M:1/8] c |[M:3/4] d2 d c2 [Ac] | %17
[M:7/8] [GB]2 [^FA] G3 G |[M:3/4] F2 FF GA |[M:5/8] [DB]-[DB]- [DB]3 |] %20
V:2
 z3 z2 [B,,B,] | [B,,B,]2 [B,,B,] [B,,F,]2 [B,,B,] | z F[F,A,E] [G,B,D]2 [D,B,] | %3
 [E,B,]2 [E,B,E] [B,,B,]2 [B,,B,] | [D,B,][C,A,][B,,B,] [F,A,F]3 |[M:1/8] [F,A,C] | %6
[M:3/4] B,C B,, [B,,F,]2 [B,,B,] | [B,,B,]2 [B,,B,][K:treble] [F,A,F]2 [F,A,F] | %8
 [F,F]-[F,B,F] [F,CF] [B,F]2[K:bass] [B,,B,] | z[K:treble] B[K:bass] C, F,3 |[M:1/8] [B,,B,] | %11
[M:3/4] [B,,B,]2 [B,,B,] [B,,B,]2 [B,,B,] | [E,B,E]2 [E,B,E] [E,B,E]2 [E,B,E] | %13
 [B,,B,]2 [B,,B,] [D,B,]2 [B,,B,] |[M:5/8][K:treble] [F,A,F]-[F,A,F]- [F,A,F]3 |[M:1/8] [F,A,F] | %16
[M:3/4] [B,F]2 [B,F][K:bass] [F,A,F]2 [F,E] |[M:7/8] [G,D]2 [D,C] [E,B,]3 [E,B,E] | %18
[M:3/4] [F,B,D]2 [F,B,D] [F,CE]2 [F,CE] |[M:5/8] [B,,B,]-[B,,B,]- [B,,B,]3 |] %20
V:3
 x6 | x6 | .[F,A,]3 z3 | x6 | x6 |[M:1/8] x |[M:3/4] B,,2 z2 z2 | x3[K:treble] x3 | %8
 .A,2 z2 z2[K:bass] | [C,G,]2[K:treble][K:bass] z2 z2 |[M:1/8] x |[M:3/4] x6 | x6 | x6 | %14
[M:5/8][K:treble] x5 |[M:1/8] x |[M:3/4] x3[K:bass] x3 |[M:7/8] x7 |[M:3/4] x6 |[M:5/8] x5 |] %20
V:4
 x6 | x6 | x6 | G-[GB]G [DF]2 [DB] | .B3 z3 |[M:1/8] x |[M:3/4] x6 | x6 | x6 | x6 |[M:1/8] x | %11
[M:3/4] x6 | x6 | x6 |[M:5/8] x5 |[M:1/8] x |[M:3/4] x6 |[M:7/8] x7 |[M:3/4] x6 |[M:5/8] x5 |] %20

